app/assets/images/heroicons/outline/document-currency-dollar.svg

<svg width="24" height="24" viewBox="0 0 24 24" fill="none" xmlns="http://www.w3.org/2000/svg">
<path d="M19.5 14.25V11.625C19.5 9.76104 17.989 8.25 16.125 8.25H14.625C14.0037 8.25 13.5 7.74632 13.5 7.125V5.625C13.5 3.76104 11.989 2.25 10.125 2.25H8.25M12 11.25V18.75M14.25 12.2835C13.5309 12.0984 12.7769 12 12 12C11.5893 12 11.1851 12.0275 10.789 12.0808C10.2532 12.1528 9.81539 12.5594 9.76771 13.098C9.75599 13.2304 9.75 13.3645 9.75 13.5C9.75 13.9642 10.0858 14.3438 10.5249 14.4943L13.4751 15.5057C13.9142 15.6562 14.25 16.0358 14.25 16.5C14.25 16.6355 14.244 16.7696 14.2323 16.902C14.1846 17.4406 13.7468 17.8472 13.211 17.9192C12.8149 17.9725 12.4107 18 12 18C11.2231 18 10.4691 17.9016 9.75 17.7165M10.5 2.25H5.625C5.00368 2.25 4.5 2.75368 4.5 3.375V20.625C4.5 21.2463 5.00368 21.75 5.625 21.75H18.375C18.9963 21.75 19.5 21.2463 19.5 20.625V11.25C19.5 6.27944 15.4706 2.25 10.5 2.25Z" stroke="black" stroke-width="1.5" stroke-linecap="round" stroke-linejoin="round"/>
</svg>

<svg xmlns="http://www.w3.org/2000/svg" fill="none" viewBox="0 0 24 24" stroke-width="1.5" stroke="currentColor" aria-hidden="true" data-slot="icon">
  <path stroke-linecap="round" stroke-linejoin="round" d="M19.5 14.25v-2.625a3.375 3.375 0 0 0-3.375-3.375h-1.5A1.125 1.125 0 0 1 13.5 7.125v-1.5a3.375 3.375 0 0 0-3.375-3.375H8.25m3.75 9v7.5m2.25-6.466a9.016 9.016 0 0 0-3.461-.203c-.536.072-.974.478-1.021 1.017a4.559 4.559 0 0 0-.018.402c0 .464.336.844.775.994l2.95 1.012c.44.15.775.53.775.994 0 .136-.006.27-.018.402-.047.539-.485.945-1.021 1.017a9.077 9.077 0 0 1-3.461-.203M10.5 2.25H5.625c-.621 0-1.125.504-1.125 1.125v17.25c0 .621.504 1.125 1.125 1.125h12.75c.621 0 1.125-.504 1.125-1.125V11.25a9 9 0 0 0-9-9Z"/>
</svg>
